X:420
T:Cliffs of Moher, The
R:jig
S:Ivor Ottley
Z:hn-jig-420
M:6/8
L:1/8
K:Ador
a3 a2g | eaa ged | BGG DGG | BGB dBd |
eaa a2g | eaa ged | BGG DGG |1 BAG A3 :|2 BAG ABd ||
|: ege dBA | ~e3 d2c | BGG DGG | BGB dBd |
ege dBA | ege d2c | BGG DGG | BAG ABd :|
P:variations
|: eaa a2g | eaa ged | BGG DGG | BGB dBd |
eaa a2g | eaa ged | BGG DGG | BAG ABd :|
|: e3 dBA | ege dBA | BGG DGG | BGB dBd |
e3 dBA | e3 dBA | BGG DGG |1 BAG ABd :|2 BAG A3 ||

